X:2
T:Brudpolska e. Kristian Oskarsson
C:W. J\"amtland
N: transcr by Jim Little
Q:1/4=120     %Tempo
M:3/4     %Meter
L:1/8   %ref note value
K:D
(A>a) (a3g) |(g>f) (f>d) d>f |(f>e) (e>c) e>f |(3g(ag) (3f(ed) e>c |
(A>a) (a3g) |(g>f) (f>d) d>f |(f>e) (e>c) e>f |(3g(ag) (3f(ed) (3c(Bc) |d2 d4 :|
|:A>(^G A>)(B A>)=G | F>(E D>)(g f>)e |(3d(ef) (3g(ag) (3f(ed) |cc/c/ cB/B/ B>A |
A>(^G A>)(B A>)=G | F>(E D>)(g f>)e |(3d(ef) (3g(ag) (3f(ed) |((3cBc) d4 :|
